data/yaldevi.svg

<svg width="43.526" height="18.424" viewBox="0 0 43.526 18.424" xmlns="http://www.w3.org/2000/svg"><path transform="translate(0 14.84) scale(.014 -.014)" d="m230 0v290l-229 478h83l123-263q22-46 39.5-89.5t34.5-85.5h-21q18 45 35.5 86.5t39.5 87.5l126 264h80l-235-479v-289z"/><path transform="translate(7.588 14.84) scale(.014 -.014)" d="m338 115 22-5q-15-40-42.5-67t-61-40.5-66.5-13.5q-48 0-85.5 20t-59.5 58.5-22 93.5q0 74 63 121t174 47q27 0 52-1.5t48-6.5v-53q-25 4-47.5 5.5t-51.5 1.5q-60 0-95-15t-50.5-41-15.5-58q0-54 28-82t78-28q27 0 56 14.5t49 45.5 20 80v210q0 60-30.5 87.5t-78.5 27.5q-34 0-72-13t-76-36l-28 56q43 28 93 42t94 14q49 0 88-19t62-57.5 23-97.5v-278q0-41 10.5-60t42.5-19q4 0 8 0t9 1l3-56q-10-2-20-3t-19-1q-54 0-78 30.5t-24 95.5z"/><path transform="translate(14.49 14.84) scale(.014 -.014)" d="m88 109v716h74v-708q0-33 12-49.5t36-16.5q10 0 22.5 2.5t25.5 7.5l1-59q-16-6-31.5-9t-32.5-3q-48 0-77.5 30t-29.5 89z"/><path transform="translate(18.354 14.84) scale(.014 -.014)" d="m468 825v-716q0-36 10-50t39-10l3-56q-41-7-68.5 2.5t-40.5 35.5-13 71v45h29q-24-80-74-119t-112-39q-58 0-103.5 34t-71.5 95-26 143q0 67 16.5 125.5t47.5 101.5 75.5 67.5 101.5 24.5q46 0 88.5-13t78.5-34l-50-43q-27 14-58 20.5t-54 6.5q-54 0-91.5-32t-57-89.5-19.5-130.5q0-69 19.5-117t51-72.5 67.5-24.5q37 0 68.5 19t51 58.5 19.5 100.5v596z"/><path transform="translate(26.124 14.84) scale(.014 -.014)" d="m289-11q-73 0-128 34.5t-85.5 101-30.5 162.5q0 89 28 154.5t79 102 118 36.5q74 0 119.5-35t65.5-97.5 20-145.5v-28h-389l1 58 313 2q0 35-6.5 68t-22 59.5-40 42-62.5 15.5q-69 0-108-63.5t-39-171.5q0-113 48.5-172.5t127.5-59.5q36 0 70.5 9.5t72.5 28.5l22-53q-44-24-88.5-36t-85.5-12z"/><path transform="translate(33.222 14.84) scale(.014 -.014)" d="M408 569H482L273 0H208L4 569H81L254 78H232Z"/><path transform="translate(40.026 14.84) scale(.014 -.014)" d="m88 0v569h73v-569zm37 675q-23 0-38 16t-15 43q0 26 15.5 42t37.5 16q23 0 38-16t15-42-15-42.5-38-16.5z"/></svg>

<?xml version="1.0" encoding="utf-8" ?>
<svg baseProfile="tiny" height="100%" version="1.2" width="100%" xmlns="http://www.w3.org/2000/svg" xmlns:ev="http://www.w3.org/2001/xml-events" xmlns:xlink="http://www.w3.org/1999/xlink"><defs /><g><path d="M230 0V290L1 768H84L207 505Q229 459 246.5 415.5Q264 372 281 330H260Q278 375 295.5 416.5Q313 458 335 504L461 768H541L306 289V0Z" transform="translate(0.0, 72) scale(0.072, -0.072)" /><path d="M338 115 360 110Q345 70 317.5 43.0Q290 16 256.5 2.5Q223 -11 190 -11Q142 -11 104.5 9.0Q67 29 45.0 67.5Q23 106 23 161Q23 235 86.0 282.0Q149 329 260 329Q287 329 312.0 327.5Q337 326 360 321V268Q335 272 312.5 273.5Q290 275 261 275Q201 275 166.0 260.0Q131 245 115.5 219.0Q100 193 100 161Q100 107 128.0 79.0Q156 51 206 51Q233 51 262.0 65.5Q291 80 311.0 111.0Q331 142 331 191V401Q331 461 300.5 488.5Q270 516 222 516Q188 516 150.0 503.0Q112 490 74 467L46 523Q89 551 139.0 565.0Q189 579 233 579Q282 579 321.0 560.0Q360 541 383.0 502.5Q406 464 406 405V127Q406 86 416.5 67.0Q427 48 459 48Q463 48 467.0 48.0Q471 48 476 49L479 -7Q469 -9 459.0 -10.0Q449 -11 440 -11Q386 -11 362.0 19.5Q338 50 338 115Z" transform="translate(39.023999999999994, 72) scale(0.072, -0.072)" /><path d="M88 109V825H162V117Q162 84 174.0 67.5Q186 51 210 51Q220 51 232.5 53.5Q245 56 258 61L259 2Q243 -4 227.5 -7.0Q212 -10 195 -10Q147 -10 117.5 20.0Q88 50 88 109Z" transform="translate(74.51999999999998, 72) scale(0.072, -0.072)" /><path d="M468 825V109Q468 73 478.0 59.0Q488 45 517 49L520 -7Q479 -14 451.5 -4.5Q424 5 411.0 31.0Q398 57 398 102V147H427Q403 67 353.0 28.0Q303 -11 241 -11Q183 -11 137.5 23.0Q92 57 66.0 118.0Q40 179 40 261Q40 328 56.5 386.5Q73 445 104.0 488.0Q135 531 179.5 555.5Q224 580 281 580Q327 580 369.5 567.0Q412 554 448 533L398 490Q371 504 340.0 510.5Q309 517 286 517Q232 517 194.5 485.0Q157 453 137.5 395.5Q118 338 118 265Q118 196 137.5 148.0Q157 100 188.5 75.5Q220 51 256 51Q293 51 324.5 70.0Q356 89 375.5 128.5Q395 168 395 229V825Z" transform="translate(94.39199999999998, 72) scale(0.072, -0.072)" /><path d="M289 -11Q216 -11 161.0 23.5Q106 58 75.5 124.5Q45 191 45 287Q45 376 73.0 441.5Q101 507 152.0 543.5Q203 580 270 580Q344 580 389.5 545.0Q435 510 455.0 447.5Q475 385 475 302V274H86L87 332L400 334Q400 369 393.5 402.0Q387 435 371.5 461.5Q356 488 331.5 503.5Q307 519 269 519Q200 519 161.0 455.5Q122 392 122 284Q122 171 170.5 111.5Q219 52 298 52Q334 52 368.5 61.5Q403 71 441 90L463 37Q419 13 374.5 1.0Q330 -11 289 -11Z" transform="translate(134.35199999999998, 72) scale(0.072, -0.072)" /><path d="M408 569H482L273 0H208L4 569H81L254 78H232Z" transform="translate(170.85599999999997, 72) scale(0.072, -0.072)" /><path d="M88 0V569H161V0ZM125 675Q102 675 87.0 691.0Q72 707 72 734Q72 760 87.5 776.0Q103 792 125 792Q148 792 163.0 776.0Q178 760 178 734Q178 708 163.0 691.5Q148 675 125 675Z" transform="translate(205.84799999999996, 72) scale(0.072, -0.072)" /></g></svg>
